X:1
T:Christmas Carol (Abbey)
T:Christmas Carol (Abbey)
T:Alonzo Judson Abbey, 1881
T:Anonymous
T:Public Domain Courtesy of the Cyber Hymnal™
T:Public Domain Courtesy of the Cyber Hymnal™
C:Alonzo Judson Abbey, 1881
Z:Public Domain
Z:Courtesy of the Cyber Hymnal™
%%score 1 ( 2 3 )
L:1/8
Q:1/4=83
M:2/4
K:Ab
V:1 treble 
V:2 bass 
V:3 bass 
V:1
 [CE]>[DF] [CE][CA] | [DG][DB] [DB]2 | [CA][Ec] [Ec]2 | [EB][Ed] [Ed]2 | [CE]>[DF] [CE][EA] | %5
w: 1.~On a Christ- mas|morn- ing bright,|An- gels white,|clothed in light,|Sang be- neath the|
w: 2.~Shep- herds watch- ing|there by night,|Saw the light,|shin- ing bright;|Caught the e- choes|
w: 3.~And the e- choes|ris- ing clear,|Still we hear,|year by year,|In- fant voic- es|
w: 4.~On the bright- est|of all days,|Let us raise,|song of praise,|Join the cho- rus|
 [DG][DB] [DB]2 | [Ec][Fd]/[FB]/ [EA][EG] | [EA]4 | [EG]>[FA] [GB][Ac] | [GB][Ge] [Ge][Ge] | %10
w: vault- ed sky,|“Glo- ry to God on|high”;|Then a light, ex-|ceed- ing bright, Shone|
w: pass- ing by,|“Glo- ry to God on|high”;|Peace on earth at|Je- sus’ birth, Was|
w: shout- ing high,|“Glo- ry to God on|high”;|Peace and love from|God a- bove, Came|
w: of the sky,|“Glo- ry to God on|high”;|Glo- ry, glo- ry,|oh, the sto- ry,|
 [F=d][Ge] [Af][Fd] | [Ge]4 | [CE]>[DF] [CE][EA] | [DG][DB] [DB]2 | [Ec] ([Fd]/[FB]/) [EA][EG] | %15
w: o’er Ju- de- a’s|plain;|And a- gain was|heard the strain,|“Peace, good * will to|
w: min- gled with the|strain;|And to men good|will a- gain,|“Glo- ry~to * God on|
w: down at Je- sus’|birth;|Let the song be|borne a- long,|Round the * list- ening|
w: All a- round pro-|claim;|Christ was born on|Christ- mas morn,|Glo- ry * to His|
 [EA]4 |] %16
w: men.”|
w: high.”|
w: earth.|
w: name.|
V:2
 [A,,A,]>[A,,A,] [A,,A,][A,,A,] | [E,B,][E,G,] [E,G,]2 | A,A, A,2 | [E,G,][E,B,] [E,B,]2 | %4
 [A,,A,]>[A,,A,] [A,,A,][A,,C] | [E,B,][E,G,] [E,G,]2 | A,[D,A,]/[D,B,]/ [E,C][E,D] | [A,,C]4 | %8
 E,>E, E,E, | E,E, E,[E,B,] | [B,,B,][B,,B,] [B,,B,][B,,B,] | [E,B,]4 | %12
 [A,,A,]>[A,,A,] [A,,A,][A,,C] | [E,B,][E,G,] [E,G,]2 | A, ([D,A,]/[D,B,]/) [E,C][E,D] | [A,,C]4 |] %16
V:3
 x4 | x4 | A,A, A,2 | x4 | x4 | x4 | A, x3 | x4 | E,>E, E,E, | E,E, E, x | x4 | x4 | x4 | x4 | %14
 A, x3 | x4 |] %16

